icons/echo-filled.svg

<svg width="256" height="256" viewBox="0 0 256 256" fill="none" xmlns="http://www.w3.org/2000/svg">
<rect width="256" height="256" rx="60" fill="#4AB2B0" />
<path fill-rule="evenodd" d="M192.304 192.471C227.899 156.838 227.899 99.3573 192.304 63.7245C156.71 28.0918 99.2905 28.0918 63.6959 63.7245C28.1014 99.3573 28.1014 156.838 63.6959 192.471C99.0307 227.843 156.71 227.843 192.304 192.471ZM184.769 184.928C216.207 153.457 216.207 102.478 184.769 71.0071C153.332 39.5359 102.408 39.5359 70.9707 71.0071C39.5332 102.478 39.5332 153.457 70.9707 184.928C102.408 216.399 153.332 216.399 184.769 184.928Z" fill="white"/>
<path d="M148.46 184.403C169.901 163.126 169.901 128.615 148.46 107.337C127.019 86.0599 92.2425 86.0599 70.8014 107.337C49.3603 128.615 49.3603 163.126 70.8014 184.403C92.2425 205.681 127.019 205.681 148.46 184.403ZM155.781 191.928C130.157 217.357 88.8433 217.357 63.2186 191.928C37.5938 166.499 37.5938 125.501 63.2186 100.072C88.8433 74.6427 130.157 74.6427 155.781 100.072C181.406 125.501 181.406 166.499 155.781 191.928Z" fill="white"/>
<path d="M111.134 184.963C122.324 173.788 122.324 155.595 111.134 144.42C99.9449 133.245 81.7298 133.245 70.5405 144.42C59.3511 155.595 59.3511 173.788 70.5405 184.963C81.7298 196.138 99.9449 196.138 111.134 184.963ZM118.681 192.5C103.328 207.833 78.6072 207.833 63.5146 192.5C48.1618 177.166 48.1618 152.477 63.5146 137.403C78.8674 122.329 103.588 122.069 118.681 137.403C133.773 152.736 133.773 177.166 118.681 192.5Z" fill="white"/>
</svg>

<svg xmlns="http://www.w3.org/2000/svg" width="256" height="256" fill="none"><rect width="256" height="256" fill="#4AB2B0" rx="60"/><path fill="#fff" fill-rule="evenodd" d="M192.304 192.471c35.595-35.633 35.595-93.114 0-128.746s-93.014-35.633-128.608 0c-35.595 35.632-35.595 93.113 0 128.746 35.335 35.372 93.014 35.372 128.608 0m-7.535-7.543c31.438-31.471 31.438-82.45 0-113.92-31.437-31.472-82.361-31.472-113.798 0-31.438 31.47-31.438 82.449 0 113.92s82.361 31.471 113.798 0"/><path fill="#fff" d="M148.46 184.403c21.441-21.277 21.441-55.788 0-77.066-21.441-21.277-56.217-21.277-77.659 0-21.44 21.278-21.44 55.789 0 77.066 21.442 21.278 56.218 21.278 77.659 0m7.321 7.525c-25.624 25.429-66.938 25.429-92.562 0a64.49 64.49 0 0 1 0-91.856c25.624-25.43 66.938-25.43 92.562 0a64.49 64.49 0 0 1 0 91.856"/><path fill="#fff" d="M111.134 184.963c11.19-11.175 11.19-29.368 0-40.543s-29.404-11.175-40.594 0c-11.189 11.175-11.189 29.368 0 40.543s29.405 11.175 40.594 0m7.547 7.537c-15.353 15.333-40.074 15.333-55.166 0-15.353-15.334-15.353-40.023 0-55.097s40.073-15.334 55.166 0 15.092 39.763 0 55.097"/></svg>
